usr/share/icons/biglinux-icons-material/scalable/apps/vlc.svg

<svg width="24" height="24" viewBox="0 0 24 24" fill="none" xmlns="http://www.w3.org/2000/svg">
<path fill-rule="evenodd" clip-rule="evenodd" d="M3.79406 20.7084C2.64763 19.6753 1.8667 18.2731 1.45127 16.5018C1.35627 16.0722 1.27628 15.641 1.21132 15.2083L22.802 15.2083C22.6555 16.2894 22.366 17.3312 21.9333 18.3338C21.4991 19.2742 20.9274 20.0658 20.2182 20.7084H3.79406Z" fill="white"/>
<path fill-rule="evenodd" clip-rule="evenodd" d="M11.9835 0.999702C11.3022 1.00026 10.6209 1.02285 9.93961 1.06748C9.83035 1.09929 9.71579 1.11456 9.59595 1.11328C8.85349 1.17296 8.12035 1.29127 7.39654 1.46823C4.29027 2.20673 2.33142 4.11885 1.52 7.20457C1.13968 8.77699 0.967851 10.3723 1.00451 11.9906C0.982735 13.0723 1.05167 14.1449 1.21132 15.2083H22.802C22.8107 15.1434 22.819 15.0784 22.8268 15.0133C22.9354 14.042 22.993 13.0694 22.9996 12.0956V11.7155C22.9959 11.174 22.9765 10.6322 22.9413 10.0899C22.8642 8.78011 22.6122 7.50536 22.1853 6.26569C21.4388 4.20667 20.0527 2.76018 18.027 1.92622C16.8086 1.46279 15.5485 1.18036 14.2468 1.07893C13.5096 1.02671 12.7723 1.0003 12.0351 0.999702H11.9835ZM20.2182 20.7084H3.79406C4.78365 21.6002 6.04557 22.217 7.57983 22.5587C9.00488 22.852 10.4415 22.9992 11.8895 23.0003C11.9004 23.0003 11.9112 23.0003 11.9221 23.0003C12.2915 23 12.6616 22.9902 13.0325 22.9709C14.6647 22.9433 16.2532 22.6685 17.7979 22.1465C18.7312 21.8042 19.5379 21.3248 20.2182 20.7084Z" fill="url(#paint0_linear_3_200)"/>
<path fill-rule="evenodd" clip-rule="evenodd" d="M10.0436 4.66532C9.88066 4.6614 9.71859 4.69008 9.56691 4.74967C9.41522 4.80926 9.27698 4.89857 9.1603 5.01235C9.04361 5.12613 8.95085 5.26208 8.88745 5.41221C8.82405 5.56235 8.79129 5.72364 8.79111 5.88661V11.5357C8.79111 12.4747 9.81145 13.0619 10.6256 12.5925L15.516 9.7705C15.7016 9.66282 15.8556 9.50829 15.9626 9.32239C16.0697 9.13648 16.1261 8.92571 16.1261 8.71118C16.1261 8.49664 16.0697 8.28587 15.9626 8.09997C15.8556 7.91406 15.7016 7.75953 15.516 7.65186L10.6256 4.82816C10.4482 4.72618 10.2482 4.6702 10.0436 4.66532Z" fill="white"/>
<path opacity="0.25" d="M20.2487 17.4984H13.8339C13.5804 17.4984 13.3749 17.7036 13.3749 17.9566C13.3749 18.2097 13.5804 18.4148 13.8339 18.4148H20.2487C20.5023 18.4148 20.7078 18.2097 20.7078 17.9566C20.7078 17.7036 20.5023 17.4984 20.2487 17.4984Z" fill="black"/>
<path d="M12.9158 17.4984H3.75004C3.4965 17.4984 3.29097 17.7036 3.29097 17.9566C3.29097 18.2097 3.4965 18.4148 3.75004 18.4148H12.9158C13.1693 18.4148 13.3749 18.2097 13.3749 17.9566C13.3749 17.7036 13.1693 17.4984 12.9158 17.4984Z" fill="#FFB32B"/>
<path d="M13.3749 19.3329C14.1345 19.3329 14.7503 18.7171 14.7503 17.9575C14.7503 17.1978 14.1345 16.582 13.3749 16.582C12.6152 16.582 11.9994 17.1978 11.9994 17.9575C11.9994 18.7171 12.6152 19.3329 13.3749 19.3329Z" fill="white"/>
<defs>
<linearGradient id="paint0_linear_3_200" x1="11.9997" y1="0.999702" x2="12" y2="12" gradientUnits="userSpaceOnUse">
<stop stop-color="#FFD996"/>
<stop offset="1" stop-color="#FFB32B"/>
</linearGradient>
</defs>
</svg>

<svg xmlns="http://www.w3.org/2000/svg" width="24" height="24" fill="none"><path fill="#fff" fill-rule="evenodd" d="M3.794 20.708c-1.146-1.033-1.927-2.435-2.343-4.206-.095-.43-.175-.861-.24-1.294h21.591a11.876 11.876 0 0 1-.869 3.126c-.434.94-1.006 1.732-1.715 2.374H3.794Z" clip-rule="evenodd"/><path fill="url(#a)" fill-rule="evenodd" d="M11.983 1c-.68 0-1.362.023-2.043.067-.11.032-.224.048-.344.046-.743.06-1.476.178-2.2.355-3.106.739-5.065 2.65-5.876 5.737a18.491 18.491 0 0 0-.515 4.786 19.052 19.052 0 0 0 .206 3.217h21.591l.025-.195c.108-.971.166-1.944.173-2.917v-.38a28.05 28.05 0 0 0-.059-1.626 14.265 14.265 0 0 0-.756-3.824c-.746-2.06-2.132-3.506-4.158-4.34a13.537 13.537 0 0 0-3.78-.847 31.657 31.657 0 0 0-2.212-.08h-.052Zm8.235 19.708H3.794c.99.892 2.252 1.509 3.786 1.85 1.425.294 2.861.441 4.31.442h.032c.37 0 .74-.01 1.11-.03a15.622 15.622 0 0 0 4.766-.823 7.306 7.306 0 0 0 2.42-1.439Z" clip-rule="evenodd"/><path fill="#fff" fill-rule="evenodd" d="M10.044 4.665A1.223 1.223 0 0 0 8.79 5.887v5.649c0 .939 1.02 1.526 1.835 1.056l4.89-2.822a1.224 1.224 0 0 0 0-2.118l-4.89-2.824a1.226 1.226 0 0 0-.582-.163Z" clip-rule="evenodd"/><path fill="#000" d="M20.249 17.498h-6.415a.459.459 0 1 0 0 .917h6.415a.459.459 0 1 0 0-.917Z" opacity=".25"/><path fill="#FFB32B" d="M12.916 17.498H3.75a.459.459 0 1 0 0 .917h9.166a.459.459 0 1 0 0-.917Z"/><path fill="#fff" d="M13.375 19.333a1.375 1.375 0 1 0 0-2.75 1.375 1.375 0 0 0 0 2.75Z"/><defs><linearGradient id="a" x1="12" x2="12" y1="1" y2="12" gradientUnits="userSpaceOnUse"><stop stop-color="#FFD996"/><stop offset="1" stop-color="#FFB32B"/></linearGradient></defs></svg>
